X:1
T:Tying Ten Knots in the Devil's Tail
M:4/4
L:1/4
K:C
 E EE/2-D/2 C/2D/2| E EE/2-D/2 C/2D/2| E/2E/2 E F E| D- G2 G| A G B G|\
 A G B G/2G/2| A G D E| C2- C z|

